X: 21771
M: C|
L: 1/8
K: D
(ag) |\
f2d2 A2F2 | A3B A2d2 | e2d2 g2f2 | {f}e4 z2(ag) |\
f2d2 A2F2 | A3B A2d2 | B2e2 A2c2 | d4 z2 :| d2 |\
cdec A2d2 |
cdec A2f2 | g2f2 e2d2 | e4 z2AG |\
a2f2 edc2 | def2 z2fg | a2d2 edc2 | d3e d2 |]


